!!!OTL: Ich wollt so gern ein Wallfahrt tun (Band 1), S. 239
!!!id: P0861
**kern
*clefG2
*k[f#]
*G:
{8d
=1
8g
8g
8f#
8f#
=2
8e
8e
4d}
=3
{8B
8B
8c
8e
=4
8d
8c
4B}
=5
{8g
8a
8b
8g
=6
8f#
8d
8g
8g}
=7
8r
=8
{8e
8g
8a
=9
8b
8g
8f#
8e
=10
4g
4g}
=11
{8g
8e
4d
=12
16g
16g
8e
4d}
=13
{8g
8a
8b
8g
=14
8f#
8a
8g}
==
*-
!!!minrhy: 16
!!!meters: 2/4 ]  ZZ[6
!!!cut: Ich wollt so gern ein Wallfahrt tun (Band 1), S. 239
!!!reg: Lothringen
!!!trd: PINCK, Louis: Verklingende Weisen, Bd 1, Metz 1928
!!!rhy1: X_  X_X_X_X_  X_X_X__   (x2)
!!!rhy2: X_X_X_X_  X_X_X__
!!!key: P0861  16  G 2/4 ]  ZZ[6
!!!mod: HEPTATONIK IONISCH]  AMBITUS[8
!!!kad: -5-311-51
!!!akz: 1-6_-3-5_1-7_31_11_1-7_
!!!fot: 'a__b__c__cv_d__cv_
!!!for: 'a__av_aw_b__c__av_
!!!fok: '^__^__~__~a_\__^__
!! PHRAS[VORWIEGEND VOLLTAKTIG]
!!!fkt: Spottlied
!! LOTH VKL
!! PR[37] 2K[0] 2G[17] 3K[5] 3G[0] 4A[7] 4Ü[0] 5A[0] 6K[0] 6G[0]
!! 7K[0] 7G[0] 8A[0] MEHR[0] SI[29] ABS[41] SR[17] SP[12]
!! ST[11] 2k[5] 2g[22] 3k[5] 3g[2] 4d[0] 4ü[0] 5d[0] 6k[0] 6g[0]
!! 7k[0] 7g[0] 8d[0] mehr[0] si[34] dm[-5] sr[27] sp[7]
!! 1F[64] 2F[27] 3F[5] 4F[0] LF[0] 2P[5] 3P[0] 4P[0] TRI[0] DF[4] AB[44]
!! TF[0] U3K[0] U3[0] U4[0] U4Ü[0] U5[2] U6K[0] U6[0] U7K[0] U7[0]
!! N1[14] N2K[0] N2[24] N3K[0] N3[31] N4[12] N4Ü[0] N5[14] N6K[0] N6[2]
!!!n7k: 0] N7[0] O1[0] O2K[0] O2[0] O3K[0] O3[0] HÖ[0
